assets/images/icon/cabriolet&roadster.svg

<svg width="34" height="11" viewBox="0 0 34 11" fill="none" xmlns="http://www.w3.org/2000/svg">
<g clip-path="url(#clip0_669_1841)">
<path d="M7.79254 8.39091C7.79254 9.04335 7.28842 9.61397 6.62935 9.61397C6.32111 9.61307 6.02575 9.48392 5.8078 9.25474C5.58984 9.02557 5.46702 8.71501 5.46615 8.39091C5.46615 7.73847 5.97027 7.16785 6.62935 7.16785C7.21061 7.2091 7.79254 7.73916 7.79254 8.39091ZM9.11069 8.39091C9.11173 8.73384 9.04825 9.07361 8.92392 9.39064C8.79959 9.70768 8.61685 9.99573 8.38623 10.2382C8.15561 10.4807 7.88166 10.6729 7.58014 10.8036C7.27862 10.9343 6.95549 11.0011 6.62935 11C6.3032 11.0011 5.98007 10.9343 5.67855 10.8036C5.37703 10.6729 5.10308 10.4807 4.87246 10.2382C4.64184 9.99573 4.4591 9.70768 4.33477 9.39064C4.21044 9.07361 4.14696 8.73384 4.148 8.39091C4.14696 8.04798 4.21044 7.70822 4.33477 7.39118C4.4591 7.07414 4.64184 6.78609 4.87246 6.54359C5.10308 6.3011 5.37703 6.10896 5.67855 5.97823C5.98007 5.8475 6.3032 5.78076 6.62935 5.78185C7.98608 5.8231 9.11069 6.96435 9.11069 8.39091ZM8.18027 8.39091C8.18027 7.49441 7.48261 6.76016 6.62935 6.76016C5.77608 6.76016 5.07842 7.49372 5.07842 8.39091C5.07842 9.2881 5.77608 10.0217 6.62935 10.0217C7.48196 10.1035 8.18027 9.32866 8.18027 8.39091ZM24.346 2.88816V1.82803L23.4933 1.33853L22.7565 2.92872C22.7179 2.92872 24.346 2.88816 24.346 2.88816ZM30.4712 8.39091C30.4722 8.73384 30.4088 9.07361 30.2844 9.39064C30.1601 9.70768 29.9774 9.99573 29.7467 10.2382C29.5161 10.4807 29.2422 10.6729 28.9406 10.8036C28.6391 10.9343 28.316 11.0011 27.9898 11C27.6637 11.0011 27.3406 10.9343 27.039 10.8036C26.7375 10.6729 26.4636 10.4807 26.233 10.2382C26.0023 9.99573 25.8196 9.70768 25.6953 9.39064C25.5709 9.07361 25.5075 8.73384 25.5085 8.39091C25.5075 8.04798 25.5709 7.70822 25.6953 7.39118C25.8196 7.07414 26.0023 6.78609 26.233 6.54359C26.4636 6.3011 26.7375 6.10896 27.039 5.97823C27.3406 5.8475 27.6637 5.78076 27.9898 5.78185C29.3858 5.8231 30.4712 6.96435 30.4712 8.39091ZM29.5793 8.39091C29.578 7.95885 29.4141 7.54491 29.1236 7.2394C28.833 6.93389 28.4393 6.76161 28.0284 6.76016C27.1758 6.76016 26.4775 7.49372 26.4775 8.39091C26.4775 9.2881 27.1752 10.0217 28.0284 10.0217C28.8817 10.1035 29.5793 9.32866 29.5793 8.39091ZM28.0291 7.16854C27.4086 7.16854 26.8659 7.6986 26.8659 8.3916C26.8659 9.04404 27.37 9.61466 28.0291 9.61466C28.6496 9.61466 29.1923 9.0846 29.1923 8.3916C29.153 7.73916 28.6489 7.16854 28.0291 7.16854ZM33.9993 5.94547L33.6894 8.5951L30.9367 9.81816C31.0145 9.41047 31.0917 8.96222 31.0917 8.63635C31.0917 6.88322 29.735 5.33428 28.0676 5.33428C26.4003 5.33428 25.0436 6.72029 25.0436 8.47272C25.0436 8.7986 25.0822 9.32866 25.1986 9.65454L25.0436 9.81747H9.537C9.61016 9.4418 9.64913 9.05966 9.65338 8.67622C9.65338 6.76016 8.29665 5.29303 6.62935 5.29303C4.96204 5.29303 3.60531 7.00491 3.60531 8.75804C3.60531 9.08391 3.64388 9.41047 3.72169 9.81816H3.56673L1.97723 9.41047L0.116385 8.47272L0 7.16854L0.309923 6.76085L0.232769 5.66016L1.241 4.64128L2.21 4.2336C4.57496 3.29585 11.2429 2.68466 11.2429 2.68466C11.2429 2.68466 15.7786 0.524534 17.2517 0.116847C17.2903 0.0762842 17.7944 0.0350342 17.7944 0.0350342V0.768597C16.2435 1.21685 13.6078 2.52172 11.9791 3.50003C7.48196 3.58116 4.45858 4.35528 4.45858 4.35528C4.45858 4.35528 6.86211 4.39585 9.42061 4.11053C15.1581 3.62103 25.3156 3.4581 27.9513 3.09166C28.4168 3.00985 29.153 2.88816 29.153 2.88816L33.7273 3.49935L33.5724 4.27416L33.7659 5.49722L33.9993 5.94547ZM3.41177 4.68185C3.41177 4.68185 2.09362 5.00772 1.70588 5.21191C1.04681 5.61891 0.697654 6.7196 0.697654 6.7196L2.20935 6.14897L3.41177 4.68185Z" fill="black"/>
</g>
<defs>
<clipPath id="clip0_669_1841">
<rect width="34" height="11" fill="white"/>
</clipPath>
</defs>
</svg>

<svg width="34" height="11" fill="currentColor" xmlns="http://www.w3.org/2000/svg"><g clip-path="url(#a)"><path d="M7.793 8.39c0 .653-.505 1.224-1.164 1.224-.308 0-.603-.13-.821-.36a1.26 1.26 0 0 1-.342-.863c0-.653.504-1.223 1.163-1.223.582.041 1.164.571 1.164 1.223zm1.318 0c0 .344-.063.684-.187 1a2.614 2.614 0 0 1-.538.848c-.23.243-.504.435-.806.566-.301.13-.625.197-.95.196a2.369 2.369 0 0 1-.951-.196 2.468 2.468 0 0 1-.807-.566 2.614 2.614 0 0 1-.537-.847 2.718 2.718 0 0 1-.187-1 2.718 2.718 0 0 1 .187-1c.124-.317.307-.605.537-.847.231-.243.505-.435.807-.566.301-.13.624-.197.95-.196 1.357.041 2.482 1.182 2.482 2.609zm-.93 0c0-.896-.698-1.63-1.552-1.63-.853 0-1.55.734-1.55 1.63 0 .898.697 1.632 1.55 1.632.853.082 1.551-.693 1.551-1.631zm16.165-5.502v-1.06l-.853-.49-.736 1.59c-.04 0 1.589-.04 1.589-.04zm6.125 5.503c.001.343-.062.683-.187 1a2.612 2.612 0 0 1-.537.847c-.23.243-.505.435-.806.566-.302.13-.625.197-.951.196a2.37 2.37 0 0 1-.951-.196 2.468 2.468 0 0 1-.806-.566 2.612 2.612 0 0 1-.538-.847 2.717 2.717 0 0 1-.186-1 2.717 2.717 0 0 1 .186-1c.125-.317.307-.605.538-.847.23-.243.505-.435.806-.566.302-.13.625-.197.95-.196 1.397.041 2.482 1.182 2.482 2.609zm-.892 0a1.68 1.68 0 0 0-.455-1.152 1.519 1.519 0 0 0-1.096-.479c-.852 0-1.55.734-1.55 1.63 0 .898.697 1.632 1.55 1.632.854.082 1.551-.693 1.551-1.631zm-1.55-1.222c-.62 0-1.163.53-1.163 1.223 0 .652.504 1.223 1.163 1.223.62 0 1.163-.53 1.163-1.223-.039-.653-.543-1.223-1.163-1.223zM34 5.945l-.31 2.65-2.752 1.223c.078-.408.155-.856.155-1.182 0-1.753-1.357-3.302-3.024-3.302-1.668 0-3.024 1.386-3.024 3.139 0 .326.038.856.155 1.182l-.155.162H9.537c.073-.375.112-.757.116-1.14 0-1.917-1.356-3.384-3.024-3.384-1.667 0-3.024 1.712-3.024 3.465 0 .326.039.652.117 1.06h-.155l-1.59-.408-1.86-.937L0 7.169l.31-.408-.077-1.1L1.24 4.64l.969-.407c2.365-.938 9.033-1.55 9.033-1.55S15.779.525 17.252.118c.038-.04.542-.082.542-.082v.734c-1.55.448-4.186 1.753-5.815 2.731-4.497.081-7.52.855-7.52.855s2.403.04 4.962-.244c5.737-.49 15.895-.653 18.53-1.02.466-.081 1.202-.203 1.202-.203l4.574.611-.155.775.194 1.223.233.448zM3.412 4.682s-1.318.326-1.706.53C1.046 5.619.698 6.72.698 6.72l1.511-.571 1.203-1.467z" fill="#000"/></g><defs><clipPath id="a"><path d="M0 0h34v11H0z"/></clipPath></defs></svg>
